src/lib/packages/icons/src/assets/filled/arrow-up-square.svg

<svg width="24" height="24" viewBox="0 0 24 24" fill="none" xmlns="http://www.w3.org/2000/svg">
<path d="M17.625 3H6.375C4.125 3 3 4.125 3 6.375V17.625C3 19.875 4.125 21 6.375 21H17.625C19.875 21 21 19.875 21 17.625V6.375C21 4.125 19.875 3 17.625 3ZM15.53 11.53C15.384 11.676 15.192 11.75 15 11.75C14.808 11.75 14.616 11.677 14.47 11.53L12.75 9.81006V16C12.75 16.414 12.414 16.75 12 16.75C11.586 16.75 11.25 16.414 11.25 16V9.81104L9.53003 11.531C9.23703 11.824 8.76199 11.824 8.46899 11.531C8.17599 11.238 8.17599 10.763 8.46899 10.47L11.469 7.46997C11.538 7.40097 11.6209 7.34611 11.7129 7.30811C11.8959 7.23211 12.1029 7.23211 12.2859 7.30811C12.3779 7.34611 12.461 7.40097 12.53 7.46997L15.53 10.47C15.823 10.763 15.823 11.237 15.53 11.53Z" fill="currentColor"/>
</svg>

<svg xmlns="http://www.w3.org/2000/svg" width="24" height="24" fill="none"><path fill="currentColor" d="M17.625 3H6.375C4.125 3 3 4.125 3 6.375v11.25C3 19.875 4.125 21 6.375 21h11.25C19.875 21 21 19.875 21 17.625V6.375C21 4.125 19.875 3 17.625 3Zm-2.095 8.53a.748.748 0 0 1-1.06 0l-1.72-1.72V16a.75.75 0 0 1-1.5 0V9.811l-1.72 1.72a.75.75 0 0 1-1.061-1.061l3-3a.748.748 0 0 1 .817-.162.749.749 0 0 1 .244.162l3 3a.749.749 0 0 1 0 1.06Z"/></svg>
